X: 8
T: The Ships In Full Sail
R: jig
M: 6/8
L: 1/8
K: Amaj
F |EAA cAA|eAA cAA|fga ecA|Bdc BAF|EAA cAA|eAA cAA|faf ecA |1 dBG A2 :|2 dBG A2f|
|:eaa c'aa | bab c'af | eaa c'aa | b3 baf | eaa c'aa | bab c'ae | fga ecA |1 dBG A2 f :|2 dBG Acd|
|:e2f ecA | fef a2f | eaf ecA | B3 Bcd | e2f ecA | fef a2f | ecA BAB |1 cAA A2 f :|2 cAA A3 ||


Tune 261	Setting 12998

